X:1
T:Title
L:1/8
M:6/8
K:Bb
V:1 treble nm="Grand Piano"
V:1
 z3[Q:1/4=140] D2 E | F2 F G2 G | F2 F F2 B | A6- | A3 C2 D | E2 E F2 F | E2 D G2 E | D6- | %8
 D3 D2 E | F2 F G2 G | F2 F F2 B | A6- | A3 c2 B | A2 A A2 G | F2 F A2 c | B6- | B3 d2 d | d3 d3 | %18
 e6- | e3 c2 c | c3 c3 | d6- | d3 c2 B | A2 A A2 G | F2 G F2 E | D6- | D3 d2 d | d3 d3 | e6- | %29
 e3 c2 c | c3 c3 | d6- | d3 c2 B | A2 A A2 G | F2 F A2 c | B6- | B3 z3 |] %37

